src/assets/images/koro-logo.svg

<svg width="48" height="48" viewBox="0 0 48 48" fill="none" xmlns="http://www.w3.org/2000/svg">
<circle cx="24" cy="24" r="24" fill="#E9F3F3"/>
<path fill-rule="evenodd" clip-rule="evenodd" d="M6.32079 27.7564C5.92309 29.1673 5.89398 30.6193 6.24009 32.0436C6.68862 33.8894 7.75496 35.6379 9.35466 37.1506C10.9544 38.6633 13.0435 39.8987 15.4565 40.7589C17.8695 41.619 20.5402 42.0804 23.257 42.1064C25.9738 42.1324 28.662 41.7223 31.1088 40.9086C33.5556 40.0949 35.6937 38.8999 37.3538 37.4184C39.0138 35.9369 40.1503 34.2094 40.673 32.3729C41.1077 30.8458 41.1082 29.2782 40.6792 27.7564C39.1152 33.3088 32.0184 37.501 23.5 37.501C14.9816 37.501 7.88478 33.3088 6.32079 27.7564Z" fill="#057872"/>
<circle cx="17" cy="24" r="3" fill="#057872"/>
<circle cx="31" cy="24" r="3" fill="#057872"/>
</svg>

<svg width="48" height="48" fill="none" xmlns="http://www.w3.org/2000/svg"><circle cx="24" cy="24" r="24" fill="#E9F3F3"/><path fill-rule="evenodd" clip-rule="evenodd" d="M6.32 27.756a8.378 8.378 0 0 0-.08 4.288c.449 1.845 1.515 3.594 3.115 5.107 1.6 1.512 3.688 2.748 6.101 3.608 2.413.86 5.084 1.321 7.801 1.347 2.717.026 5.405-.384 7.852-1.197 2.447-.814 4.585-2.01 6.245-3.49 1.66-1.482 2.796-3.21 3.319-5.046a8.387 8.387 0 0 0 .006-4.617c-1.564 5.553-8.66 9.745-17.179 9.745-8.518 0-15.615-4.192-17.18-9.745Z" fill="#057872"/><circle cx="17" cy="24" r="3" fill="#057872"/><circle cx="31" cy="24" r="3" fill="#057872"/></svg>
